assets/icons/qvision/group_work.svg

<svg xmlns="http://www.w3.org/2000/svg" height="24" viewBox="0 0 24 24" width="24"><path d="M0 0h24v24H0z" fill="none"/><path d="M12 2C6.48 2 2 6.48 2 12s4.48 10 10 10 10-4.48 10-10S17.52 2 12 2zM8 17.5c-1.38 0-2.5-1.12-2.5-2.5s1.12-2.5 2.5-2.5 2.5 1.12 2.5 2.5-1.12 2.5-2.5 2.5zM9.5 8c0-1.38 1.12-2.5 2.5-2.5s2.5 1.12 2.5 2.5-1.12 2.5-2.5 2.5S9.5 9.38 9.5 8zm6.5 9.5c-1.38 0-2.5-1.12-2.5-2.5s1.12-2.5 2.5-2.5 2.5 1.12 2.5 2.5-1.12 2.5-2.5 2.5z"/></svg>

<svg width="24" height="24" viewBox="0 0 24 24" fill="none" xmlns="http://www.w3.org/2000/svg">
<g clip-path="url(#clip0_147_4260)">
<path d="M12 2C6.48 2 2 6.48 2 12C2 17.52 6.48 22 12 22C17.52 22 22 17.52 22 12C22 6.48 17.52 2 12 2ZM8 17.5C6.62 17.5 5.5 16.38 5.5 15C5.5 13.62 6.62 12.5 8 12.5C9.38 12.5 10.5 13.62 10.5 15C10.5 16.38 9.38 17.5 8 17.5ZM9.5 8C9.5 6.62 10.62 5.5 12 5.5C13.38 5.5 14.5 6.62 14.5 8C14.5 9.38 13.38 10.5 12 10.5C10.62 10.5 9.5 9.38 9.5 8ZM16 17.5C14.62 17.5 13.5 16.38 13.5 15C13.5 13.62 14.62 12.5 16 12.5C17.38 12.5 18.5 13.62 18.5 15C18.5 16.38 17.38 17.5 16 17.5Z" fill="#323232"/>
</g>
<defs>
<clipPath id="clip0_147_4260">
<rect width="24" height="24" fill="white"/>
</clipPath>
</defs>
</svg>
